assets/Waffle/Flat/waffle_flat.svg

<svg width="32" height="32" viewBox="0 0 32 32" fill="none" xmlns="http://www.w3.org/2000/svg">
<path d="M7.23061 14.5174C5.01061 14.4674 3.01061 15.8474 2.27061 17.9274C1.88061 18.9574 1.91061 20.1074 2.37061 21.1074C2.69061 21.8174 3.21061 22.4174 3.87061 22.8374L12.5206 28.0474C14.6406 29.3074 17.2806 29.3074 19.4106 28.0474L28.0606 22.8374C28.7106 22.4174 29.2306 21.8174 29.5606 21.1074C30.0206 20.1074 30.0606 18.9574 29.6606 17.9274C28.9206 15.8374 26.9206 14.4574 24.7006 14.5074C19.3602 14.6574 13.0949 14.6492 7.23061 14.5174Z" fill="#D3883E"/>
<path d="M14.0707 9.5175L4.5207 15.1775C3.1207 16.0075 3.1207 18.0275 4.5207 18.8475L14.0707 24.5075C15.2407 25.1975 16.6907 25.1975 17.8607 24.5075L27.4107 18.8475C28.8107 18.0175 28.8107 15.9975 27.4107 15.1775L17.8607 9.5175C16.6907 8.8275 15.2407 8.8275 14.0707 9.5175Z" fill="#F3C07B"/>
<path d="M14.0206 11.7575L15.4806 10.8975C15.7806 10.7175 16.1506 10.7175 16.4506 10.8975L17.9006 11.7575C18.3106 12.0075 18.3106 12.6075 17.9006 12.8475L16.4406 13.7075C16.1506 13.8875 15.7806 13.8875 15.4806 13.7075L14.0206 12.8475C13.6106 12.5975 13.6106 11.9975 14.0206 11.7575Z" fill="#B97028"/>
<path d="M19.2406 13.0674L17.7806 13.9274C17.3706 14.1674 17.3706 14.7674 17.7806 15.0174L19.2406 15.8774C19.5406 16.0574 19.9106 16.0574 20.2006 15.8774L21.6606 15.0174C22.0706 14.7774 22.0706 14.1774 21.6606 13.9274L20.2006 13.0674C19.9106 12.8874 19.5406 12.8874 19.2406 13.0674Z" fill="#B97028"/>
<path d="M11.7306 13.2175L10.2706 14.0775C9.8606 14.3175 9.8606 14.9175 10.2706 15.1675L11.7306 16.0275C12.0306 16.2075 12.4006 16.2075 12.6906 16.0275L14.1506 15.1675C14.5606 14.9275 14.5606 14.3275 14.1506 14.0775L12.6906 13.2175C12.3906 13.0375 12.0206 13.0375 11.7306 13.2175Z" fill="#B97028"/>
<path d="M14.0206 16.2474L15.4806 15.3874C15.7806 15.2074 16.1506 15.2074 16.4406 15.3874L17.9006 16.2474C18.3106 16.4974 18.3106 17.0974 17.9006 17.3374L16.4406 18.1974C16.1506 18.3774 15.7806 18.3774 15.4806 18.1974L14.0206 17.3374C13.6106 17.0874 13.6106 16.4874 14.0206 16.2474Z" fill="#B97028"/>
<path d="M6.51063 16.3975L7.97062 15.5375C8.27062 15.3575 8.64062 15.3575 8.93062 15.5375L10.3906 16.3975C10.8006 16.6475 10.8006 17.2475 10.3906 17.4875L8.93062 18.3475C8.64062 18.5275 8.27062 18.5275 7.97062 18.3475L6.51063 17.4875C6.10063 17.2375 6.10063 16.6375 6.51063 16.3975Z" fill="#B97028"/>
<path d="M11.7306 17.7074L10.2706 18.5674C9.8606 18.8074 9.8606 19.4074 10.2706 19.6574L11.7306 20.5174C12.0306 20.6974 12.4006 20.6974 12.6906 20.5174L14.1506 19.6574C14.5606 19.4174 14.5606 18.8174 14.1506 18.5674L12.6906 17.7074C12.3906 17.5274 12.0206 17.5274 11.7306 17.7074Z" fill="#B97028"/>
<path d="M15.4806 19.8774L14.0206 20.7374C13.6106 20.9774 13.6106 21.5774 14.0206 21.8274L15.4806 22.6874C15.7806 22.8674 16.1506 22.8674 16.4406 22.6874L17.9006 21.8274C18.3106 21.5874 18.3106 20.9874 17.9006 20.7374L16.4406 19.8774C16.1506 19.6974 15.7806 19.6974 15.4806 19.8774Z" fill="#B97028"/>
<path d="M19.2406 17.5574L17.7806 18.4174C17.3706 18.6574 17.3706 19.2574 17.7806 19.5074L19.2406 20.3674C19.5406 20.5474 19.9106 20.5474 20.2006 20.3674L21.6606 19.5074C22.0706 19.2674 22.0706 18.6674 21.6606 18.4174L20.2006 17.5574C19.9106 17.3774 19.5406 17.3774 19.2406 17.5574Z" fill="#B97028"/>
<path d="M21.5406 16.0974L23.0006 15.2374C23.2906 15.0574 23.6606 15.0574 23.9606 15.2474L25.4206 16.1074C25.8306 16.3574 25.8306 16.9574 25.4206 17.1974L23.9606 18.0574C23.6706 18.2374 23.3006 18.2374 23.0006 18.0574L21.5406 17.1874C21.1306 16.9374 21.1306 16.3374 21.5406 16.0974Z" fill="#B97028"/>
<path d="M17.3206 15.3575L16.8906 15.0975C16.3206 14.7575 15.6106 14.7575 15.0406 15.0975L14.6006 15.3575H11.4006V17.3975C11.4006 17.7975 11.5906 18.1875 11.9806 18.4175L15.0406 20.2275C15.6106 20.5675 16.3206 20.5675 16.8906 20.2275L19.9506 18.4175C20.3406 18.1875 20.5306 17.7875 20.5306 17.3975V15.3575H17.3206Z" fill="#F9C23C"/>
<path d="M15.0405 12.5875L11.9805 14.4075C11.2005 14.8675 11.2005 15.9975 11.9805 16.4575L15.0405 18.2675C15.6105 18.6075 16.3205 18.6075 16.8905 18.2675L19.9505 16.4575C20.7305 15.9975 20.7305 14.8675 19.9505 14.4075L16.8905 12.5975C16.3205 12.2475 15.6105 12.2475 15.0405 12.5875Z" fill="#FCD53F"/>
</svg>

<svg xmlns="http://www.w3.org/2000/svg" width="32" height="32" fill="none"><path fill="#D3883E" d="M7.23 14.517a5.142 5.142 0 0 0-4.96 3.41c-.39 1.03-.36 2.18.1 3.18.32.71.84 1.31 1.5 1.73l8.65 5.21a6.752 6.752 0 0 0 6.89 0l8.65-5.21c.65-.42 1.17-1.02 1.5-1.73.46-1 .5-2.15.1-3.18a5.138 5.138 0 0 0-4.96-3.42c-5.34.15-11.605.142-17.47.01Z"/><path fill="#F3C07B" d="m14.07 9.518-9.55 5.66c-1.4.83-1.4 2.85 0 3.67l9.55 5.66c1.17.69 2.62.69 3.79 0l9.55-5.66c1.4-.83 1.4-2.85 0-3.67l-9.55-5.66a3.728 3.728 0 0 0-3.79 0Z"/><path fill="#B97028" d="m14.02 11.758 1.46-.86c.3-.18.67-.18.97 0l1.45.86c.41.25.41.85 0 1.09l-1.46.86a.92.92 0 0 1-.96 0l-1.46-.86c-.41-.25-.41-.85 0-1.09ZM19.24 13.067l-1.46.86c-.41.24-.41.84 0 1.09l1.46.86c.3.18.67.18.96 0l1.46-.86c.41-.24.41-.84 0-1.09l-1.46-.86a.92.92 0 0 0-.96 0ZM11.73 13.217l-1.46.86c-.41.24-.41.84 0 1.09l1.46.86c.3.18.67.18.96 0l1.46-.86c.41-.24.41-.84 0-1.09l-1.46-.86a.92.92 0 0 0-.96 0ZM14.02 16.247l1.46-.86c.3-.18.67-.18.96 0l1.46.86c.41.25.41.85 0 1.09l-1.46.86a.92.92 0 0 1-.96 0l-1.46-.86c-.41-.25-.41-.85 0-1.09ZM6.51 16.398l1.46-.86c.3-.18.67-.18.96 0l1.46.86c.41.25.41.85 0 1.09l-1.46.86a.92.92 0 0 1-.96 0l-1.46-.86c-.41-.25-.41-.85 0-1.09ZM11.73 17.707l-1.46.86c-.41.24-.41.84 0 1.09l1.46.86c.3.18.67.18.96 0l1.46-.86c.41-.24.41-.84 0-1.09l-1.46-.86a.92.92 0 0 0-.96 0ZM15.48 19.877l-1.46.86c-.41.24-.41.84 0 1.09l1.46.86c.3.18.67.18.96 0l1.46-.86c.41-.24.41-.84 0-1.09l-1.46-.86a.92.92 0 0 0-.96 0ZM19.24 17.557l-1.46.86c-.41.24-.41.84 0 1.09l1.46.86c.3.18.67.18.96 0l1.46-.86c.41-.24.41-.84 0-1.09l-1.46-.86a.92.92 0 0 0-.96 0ZM21.54 16.097l1.46-.86a.9.9 0 0 1 .96.01l1.46.86c.41.25.41.85 0 1.09l-1.46.86a.92.92 0 0 1-.96 0l-1.46-.87c-.41-.25-.41-.85 0-1.09Z"/><path fill="#F9C23C" d="m17.32 15.357-.43-.26c-.57-.34-1.28-.34-1.85 0l-.44.26h-3.2v2.04c0 .4.19.79.58 1.02l3.06 1.81c.57.34 1.28.34 1.85 0l3.06-1.81c.39-.23.58-.63.58-1.02v-2.04h-3.21Z"/><path fill="#FCD53F" d="m15.04 12.588-3.06 1.82a1.19 1.19 0 0 0 0 2.05l3.06 1.81c.57.34 1.28.34 1.85 0l3.06-1.81c.78-.46.78-1.59 0-2.05l-3.06-1.81c-.57-.35-1.28-.35-1.85-.01Z"/></svg>
